icons/a3-landscape-32.svg

<?xml version="1.0" encoding="UTF-8"?><svg id="icons" xmlns="http://www.w3.org/2000/svg" viewBox="0 0 32 32"><defs><style>.cls-1{fill:none;}.cls-1,.cls-2,.cls-3{stroke-width:0px;}.cls-2{opacity:.25;}</style></defs><rect class="cls-1" width="32" height="32"/><path class="cls-2" d="M22,9H3v-3h19v3Z"/><path class="cls-3" d="M23.30103,5H2v18h1V6h19v8h8v12h-4v1h5v-14.29999l-7.69897-7.70001ZM23,13v-7l7,7h-7ZM20,30c-2.04492,0-3.70801-1.53027-3.70801-3.41211h1c0,1.33008,1.21484,2.41211,2.70801,2.41211s2.70801-1.08203,2.70801-2.41211c0-1.30469-1.18945-2.32715-2.70801-2.32715v-1c1.3457,0,2.70801-.69043,2.70801-2.01074,0-1.24023-1.21484-2.25-2.70801-2.25s-2.70801,1.00977-2.70801,2.25h-1c0-1.79199,1.66309-3.25,3.70801-3.25s3.70801,1.45801,3.70801,3.25c0,1.11426-.63574,2.0332-1.6543,2.55176,1.00391.58887,1.6543,1.60645,1.6543,2.78613,0,1.88184-1.66309,3.41211-3.70801,3.41211ZM13.07158,25.05737v-.05737h-.02405l-2.93384-7h-1.08423l-2.93384,7h-.02405v.05737l-2.07159,4.94263h1.08398l1.67657-4h5.62207l1.61737,4h.90002l-1.82843-4.94263ZM7.17974,25l2.39185-5.70654,2.39185,5.70654h-4.78369Z"/></svg>

<svg xmlns="http://www.w3.org/2000/svg" viewBox="0 0 32 32"><path stroke-width="0" fill="none" d="M0 0h32v32H0z"/><path d="M22 9H3V6h19v3z" opacity=".25" stroke-width="0"/><path d="M23.301 5H2v18h1V6h19v8h8v12h-4v1h5V12.7L23.301 5zM23 13V6l7 7h-7zm-3 17c-2.045 0-3.708-1.53-3.708-3.412h1C17.292 27.918 18.507 29 20 29s2.708-1.082 2.708-2.412c0-1.305-1.19-2.327-2.708-2.327v-1c1.346 0 2.708-.69 2.708-2.011 0-1.24-1.215-2.25-2.708-2.25s-2.708 1.01-2.708 2.25h-1c0-1.792 1.663-3.25 3.708-3.25s3.708 1.458 3.708 3.25c0 1.114-.636 2.033-1.654 2.552 1.004.589 1.654 1.606 1.654 2.786C23.708 28.47 22.045 30 20 30zm-6.928-4.943V25h-.024l-2.934-7H9.029l-2.933 7h-.024v.057L4 30h1.084l1.677-4h5.622L14 30h.9l-1.828-4.943zM7.18 25l2.392-5.707L11.963 25H7.18z" stroke-width="0"/></svg>
